priv/static/svgs/icons_new/sport-cycling.svg

<svg width="32" height="32" viewBox="0 0 32 32" fill="none" xmlns="http://www.w3.org/2000/svg">
<path d="M6.64507 8.89516C6.36893 8.89516 6.14507 9.11902 6.14507 9.39516C6.14507 9.6713 6.36893 9.89516 6.64507 9.89516V8.89516ZM9.21836 16.8721C9.04307 17.0855 9.07394 17.4006 9.28732 17.5759C9.50069 17.7511 9.81576 17.7203 9.99105 17.5069L9.21836 16.8721ZM7.24049 16.8766C7.28316 17.1494 7.53892 17.336 7.81174 17.2933C8.08457 17.2507 8.27115 16.9949 8.22848 16.7221L7.24049 16.8766ZM6.55109 5.99628C6.50842 5.72346 6.25267 5.53688 5.97984 5.57954C5.70701 5.62221 5.52043 5.87797 5.5631 6.15079L6.55109 5.99628ZM19.9657 9.37097C19.6896 9.37202 19.4665 9.59672 19.4676 9.87286C19.4686 10.149 19.6933 10.372 19.9695 10.371L19.9657 9.37097ZM21.895 7.94355L21.395 7.93978L21.395 7.94166L21.895 7.94355ZM19.9676 6L19.9695 5.5H19.9676V6ZM16.008 6V5.5C15.7318 5.5 15.508 5.72385 15.508 5.99998L16.008 6ZM18.7505 19.3813C18.8364 19.6438 19.1188 19.7869 19.3812 19.701C19.6436 19.6151 19.7868 19.3327 19.7009 19.0703L18.7505 19.3813ZM6.0571 5.5C5.78095 5.5 5.5571 5.72386 5.5571 6C5.5571 6.27614 5.78095 6.5 6.0571 6.5V5.5ZM7.79497 6.5C8.07111 6.5 8.29497 6.27614 8.29497 6C8.29497 5.72386 8.07111 5.5 7.79497 5.5V6.5ZM7.7579 23.0968C7.7579 23.3729 7.98175 23.5968 8.2579 23.5968C8.53404 23.5968 8.7579 23.3729 8.7579 23.0968H7.7579ZM8.7579 19.2258C8.7579 18.9497 8.53404 18.7258 8.2579 18.7258C7.98175 18.7258 7.7579 18.9497 7.7579 19.2258H8.7579ZM6.96808 23.1205C6.69194 23.1205 6.46808 23.3444 6.46808 23.6205C6.46808 23.8966 6.69194 24.1205 6.96808 24.1205V23.1205ZM9.54869 24.1205C9.82483 24.1205 10.0487 23.8966 10.0487 23.6205C10.0487 23.3444 9.82483 23.1205 9.54869 23.1205V24.1205ZM17.8407 14.2812C17.5747 14.3556 17.4194 14.6314 17.4938 14.8974C17.5681 15.1633 17.844 15.3186 18.11 15.2443L17.8407 14.2812ZM19.4002 14.5947L19.3814 15.0943L19.4002 14.5947ZM23.8571 19.4L23.3575 19.3812L23.8571 19.4ZM19.0519 23.8569L19.0707 23.3573L19.0519 23.8569ZM14.595 19.0516L15.0946 19.0704L14.595 19.0516ZM16.497 16.119C16.7043 15.9367 16.7246 15.6207 16.5423 15.4134C16.3599 15.206 16.044 15.1857 15.8366 15.3681L16.497 16.119ZM6.64507 9.89516H16.0078V8.89516H6.64507V9.89516ZM15.6215 9.07777L9.21836 16.8721L9.99105 17.5069L16.3942 9.71255L15.6215 9.07777ZM8.22848 16.7221L6.55109 5.99628L5.5631 6.15079L7.24049 16.8766L8.22848 16.7221ZM19.9695 10.371C21.3086 10.3659 22.3899 9.28461 22.395 7.94544L21.395 7.94166C21.392 8.73152 20.7555 9.36798 19.9657 9.37097L19.9695 10.371ZM22.395 7.94732C22.4051 6.60064 21.3177 5.50507 19.9695 5.5L19.9657 6.5C20.7626 6.50299 21.401 7.14936 21.395 7.93978L22.395 7.94732ZM19.9676 5.5H16.008V6.5H19.9676V5.5ZM15.508 5.99998L15.5078 9.39514L16.5078 9.39518L16.508 6.00002L15.508 5.99998ZM15.5326 9.5507L18.7505 19.3813L19.7009 19.0703L16.483 9.23962L15.5326 9.5507ZM6.0571 6.5H7.79497V5.5H6.0571V6.5ZM10.0161 19.2742C10.0161 20.2452 9.22895 21.0323 8.25803 21.0323V22.0323C9.78125 22.0323 11.0161 20.7974 11.0161 19.2742H10.0161ZM8.25803 21.0323C7.2871 21.0323 6.5 20.2452 6.5 19.2742H5.5C5.5 20.7974 6.7348 22.0323 8.25803 22.0323V21.0323ZM6.5 19.2742C6.5 18.3033 7.2871 17.5161 8.25803 17.5161V16.5161C6.7348 16.5161 5.5 17.751 5.5 19.2742H6.5ZM8.25803 17.5161C9.22895 17.5161 10.0161 18.3033 10.0161 19.2742H11.0161C11.0161 17.751 9.78125 16.5161 8.25803 16.5161V17.5161ZM8.7579 23.0968V19.2258H7.7579V23.0968H8.7579ZM6.96808 24.1205H9.54869V23.1205H6.96808V24.1205ZM25.5 19.2258C25.5 22.691 22.691 25.5 19.2259 25.5V26.5C23.2433 26.5 26.5 23.2432 26.5 19.2258H25.5ZM19.2259 25.5C15.7608 25.5 12.9518 22.691 12.9518 19.2258H11.9518C11.9518 23.2432 15.2085 26.5 19.2259 26.5V25.5ZM12.9518 19.2258C12.9518 15.7607 15.7608 12.9516 19.2259 12.9516V11.9516C15.2085 11.9516 11.9518 15.2084 11.9518 19.2258H12.9518ZM19.2259 12.9516C22.691 12.9516 25.5 15.7607 25.5 19.2258H26.5C26.5 15.2084 23.2433 11.9516 19.2259 11.9516V12.9516ZM18.11 15.2443C18.5127 15.1316 18.9407 15.0777 19.3814 15.0943L19.419 14.095C18.8722 14.0745 18.3408 14.1413 17.8407 14.2812L18.11 15.2443ZM19.3814 15.0943C21.6628 15.1801 23.4433 17.0998 23.3575 19.3812L24.3568 19.4188C24.4633 16.5855 22.2522 14.2016 19.419 14.095L19.3814 15.0943ZM23.3575 19.3812C23.2717 21.6626 21.352 23.4431 19.0707 23.3573L19.0331 24.3566C21.8663 24.4631 24.2502 22.252 24.3568 19.4188L23.3575 19.3812ZM19.0707 23.3573C16.7893 23.2715 15.0088 21.3518 15.0946 19.0704L14.0953 19.0328C13.9888 21.8661 16.1998 24.25 19.0331 24.3566L19.0707 23.3573ZM15.0946 19.0704C15.139 17.8891 15.6739 16.8429 16.497 16.119L15.8366 15.3681C14.816 16.2656 14.1505 17.5662 14.0953 19.0328L15.0946 19.0704Z" fill="black"/>
</svg>

<svg width="32" height="32" viewBox="0 0 32 32" fill="none" xmlns="http://www.w3.org/2000/svg">
  <symbol id="item" viewBox="0 0 32 32"  fill="none">
    <path d="M6.645 8.895a.5.5 0 0 0 0 1v-1Zm2.573 7.977a.5.5 0 0 0 .773.635l-.773-.635Zm-1.978.005a.5.5 0 0 0 .988-.155l-.988.155Zm-.689-10.88a.5.5 0 0 0-.988.154l.988-.155ZM19.966 9.37a.5.5 0 1 0 .003 1l-.003-1Zm1.929-1.427-.5-.004v.002l.5.002ZM19.968 6l.002-.5h-.002V6Zm-3.96 0v-.5a.5.5 0 0 0-.5.5h.5Zm2.742 13.381a.5.5 0 1 0 .95-.31l-.95.31ZM6.057 5.5a.5.5 0 1 0 0 1v-1Zm1.738 1a.5.5 0 0 0 0-1v1Zm-.037 16.597a.5.5 0 0 0 1 0h-1Zm1-3.871a.5.5 0 0 0-1 0h1Zm-1.79 3.895a.5.5 0 0 0 0 1v-1Zm2.58 1a.5.5 0 0 0 0-1v1Zm8.293-9.84a.5.5 0 1 0 .269.963l-.27-.963Zm1.56.314-.02.5.02-.5Zm4.456 4.805-.5-.019.5.019Zm-4.805 4.457.019-.5-.02.5Zm-4.457-4.805.5.018-.5-.018Zm1.902-2.933a.5.5 0 0 0-.66-.75l.66.75ZM6.645 9.895h9.363v-1H6.645v1Zm8.976-.817-6.403 7.794.773.635 6.403-7.794-.772-.635Zm-7.393 7.644L6.551 5.996l-.988.155L7.24 16.877l.988-.155Zm11.742-6.351a2.433 2.433 0 0 0 2.425-2.426l-1-.003a1.433 1.433 0 0 1-1.43 1.429l.005 1Zm2.425-2.424A2.43 2.43 0 0 0 19.97 5.5l-.004 1a1.43 1.43 0 0 1 1.429 1.44l1 .007ZM19.968 5.5h-3.96v1h3.96v-1Zm-4.46.5v3.395h1V6h-1Zm.025 3.55 3.217 9.831.95-.31-3.217-9.831-.95.31ZM6.057 6.5h1.738v-1H6.057v1Zm3.96 12.774c0 .971-.788 1.758-1.759 1.758v1a2.758 2.758 0 0 0 2.758-2.758h-1Zm-1.759 1.758c-.97 0-1.758-.787-1.758-1.758h-1a2.758 2.758 0 0 0 2.758 2.758v-1ZM6.5 19.274c0-.97.787-1.758 1.758-1.758v-1A2.758 2.758 0 0 0 5.5 19.274h1Zm1.758-1.758c.971 0 1.758.787 1.758 1.758h1a2.758 2.758 0 0 0-2.758-2.758v1Zm.5 5.58v-3.87h-1v3.87h1Zm-1.79 1.024h2.58v-1h-2.58v1ZM25.5 19.227a6.274 6.274 0 0 1-6.274 6.274v1a7.274 7.274 0 0 0 7.274-7.274h-1ZM19.226 25.5a6.274 6.274 0 0 1-6.274-6.274h-1a7.274 7.274 0 0 0 7.274 7.274v-1Zm-6.274-6.274a6.274 6.274 0 0 1 6.274-6.274v-1a7.274 7.274 0 0 0-7.274 7.274h1Zm6.274-6.274a6.274 6.274 0 0 1 6.274 6.274h1a7.274 7.274 0 0 0-7.274-7.274v1Zm-1.116 2.292c.403-.112.83-.166 1.271-.15l.038-.999a5.14 5.14 0 0 0-1.578.186l.269.963Zm1.271-.15a4.135 4.135 0 0 1 3.977 4.287l.999.038a5.135 5.135 0 0 0-4.938-5.324l-.038 1Zm3.977 4.287a4.135 4.135 0 0 1-4.287 3.976l-.038 1a5.135 5.135 0 0 0 5.324-4.938l-1-.038Zm-4.287 3.976a4.135 4.135 0 0 1-3.976-4.287l-1-.037a5.135 5.135 0 0 0 4.938 5.324l.038-1Zm-3.976-4.287a4.124 4.124 0 0 1 1.402-2.951l-.66-.75a5.124 5.124 0 0 0-1.742 3.664l1 .037Z" fill="currentColor"/>
  </symbol>
</svg>
